lib/flags/s/HK.svg

<svg xmlns="http://www.w3.org/2000/svg" fill="none" viewBox="0 0 16 12"><mask id="HK_svg__a" width="16" height="12" x="0" y="0" mask-type="alpha" maskUnits="userSpaceOnUse"><path fill="#fff" d="M0 0H16V12H0z"/></mask><g mask="url(#HK_svg__a)"><path fill="#EA1A1A" fill-rule="evenodd" d="M0 0V12H16V0H0Z" clip-rule="evenodd"/><mask id="HK_svg__b" width="16" height="12" x="0" y="0" mask-type="alpha" maskUnits="userSpaceOnUse"><path fill="#fff" fill-rule="evenodd" d="M0 0V12H16V0H0Z" clip-rule="evenodd"/></mask><g mask="url(#HK_svg__b)"><path fill="#fff" fill-rule="evenodd" d="M7.93477 5.78736C7.93477 5.78736 5.03992 3.20573 8.49435 1.70154C8.49435 1.70154 9.49896 2.80985 8.74531 4.05408C8.49805 4.46216 8.28951 4.75357 8.1328 4.97256C7.81172 5.42123 7.70816 5.56594 7.93477 5.78736ZM3.66238 3.93373C3.46357 7.69615 7.06704 6.26101 7.06704 6.26101C6.7678 6.36466 6.68465 6.20733 6.42694 5.71974L6.42694 5.71973C6.3011 5.48164 6.13364 5.16479 5.87907 4.76113C5.1031 3.53065 3.66238 3.93373 3.66238 3.93373ZM9.11908 5.9135C9.11908 5.9135 12.835 7.02596 10.343 9.85178C10.343 9.85178 8.96336 9.27319 9.11908 7.82697C9.17019 7.35276 9.23561 7.00054 9.28479 6.73581C9.38558 6.19321 9.4181 6.01815 9.11908 5.9135ZM8.14238 6.78083C8.14238 6.78083 8.80855 10.602 5.16685 9.63632C5.16685 9.63632 5.0677 8.14363 6.43094 7.63639C6.8781 7.46998 7.22247 7.371 7.48126 7.29661L7.48127 7.29661L7.4813 7.2966L7.4813 7.2966C8.0115 7.1442 8.18251 7.09505 8.14238 6.78083ZM12.7394 5.13763C10.4616 2.13654 8.63692 5.55921 8.63692 5.55921C8.79854 5.2868 8.96361 5.35322 9.47515 5.55909C9.72502 5.65964 10.0576 5.79346 10.5127 5.93731C11.8997 6.37566 12.7394 5.13763 12.7394 5.13763Z" clip-rule="evenodd"/><path stroke="#EA1A1A" stroke-width=".5" d="M5.08063 5.104C5.08063 5.104 5.80853 6.24958 7.00058 6.24958M7.93011 3.52515C7.93011 3.52515 7.27688 4.73027 7.83651 5.78278M11.055 4.88074C11.055 4.88074 9.5299 4.64953 8.73226 5.5354M10.1642 7.67249C10.1642 7.67249 9.85983 6.16029 8.75459 5.71374M6.96661 8.49329C6.96661 8.49329 8.28352 7.69009 8.32512 6.49877"/></g></g></svg>

<svg xmlns="http://www.w3.org/2000/svg" fill="none" viewBox="0 0 16 12"><mask id="HK_svg__a" width="16" height="12" x="0" y="0" maskUnits="userSpaceOnUse"><path fill="#fff" d="M0 0h16v12H0z"/></mask><g mask="url(#HK_svg__a)"><path fill="#EA1A1A" fill-rule="evenodd" d="M0 0v12h16V0H0z" clip-rule="evenodd"/><mask id="HK_svg__b" width="16" height="12" x="0" y="0" maskUnits="userSpaceOnUse"><path fill="#fff" fill-rule="evenodd" d="M0 0v12h16V0H0z" clip-rule="evenodd"/></mask><g mask="url(#HK_svg__b)"><path fill="#fff" fill-rule="evenodd" d="M7.935 5.787s-2.895-2.581.56-4.085c0 0 1.004 1.108.25 2.352-.247.408-.456.7-.612.919-.321.448-.425.593-.198.814zM3.662 3.934C3.464 7.696 7.067 6.26 7.067 6.26c-.3.104-.382-.054-.64-.541-.126-.238-.293-.555-.548-.959-.776-1.23-2.217-.827-2.217-.827zm5.457 1.98s3.716 1.112 1.224 3.938c0 0-1.38-.579-1.224-2.025.051-.474.117-.826.166-1.091.1-.543.133-.718-.166-.822zm-.977.867s.667 3.821-2.975 2.855c0 0-.1-1.492 1.264-2 .447-.166.791-.265 1.05-.34.53-.152.701-.2.661-.515zm4.597-1.643c-2.277-3.001-4.102.421-4.102.421.162-.272.327-.206.838 0 .25.1.582.234 1.038.378 1.387.439 2.226-.8 2.226-.8z" clip-rule="evenodd"/><path stroke="#EA1A1A" stroke-width=".5" d="M5.08 5.104S5.809 6.25 7 6.25m.93-2.725s-.653 1.205-.093 2.258m3.218-.903s-1.525-.23-2.323.655m1.432 2.137S9.86 6.16 8.754 5.714M6.967 8.493S8.284 7.69 8.325 6.5"/></g></g></svg>
